X:1
T:Title
%%score { 1 | 2 } { 3 | 4 }
L:1/8
Q:1/4=110
M:3/4
K:G
V:1 treble nm="Grand Piano, Unnamed-000"
V:2 bass 
V:3 bass nm="Choir Pad, Christmas Song"
V:4 bass 
V:1
 D>E D2 G2 | E2 F4 | D>D D2 G2 | B2 d4 | D>E D2 G2 | E2 F4 | F>F G2 F2 | E2 D4 | d>d e2 d2 | %9
w: By~Karl~Pomeroy~Harrington,~1904 * * *|||||||||
 B2 A2 G2 | E2 D2 F2 | A2 d4 | d>d e2 d2 | B2 A2 G2 | c2 B2 A2 | D2 G4- | G4 z2 |] %17
w: ||||||||
V:2
 B,>B, B,2 B,2 | B,2[K:treble] C4 | C>C B,2 D2 | G2 F4 | C>C B,2 D2 | D2 D4 | D>D ^C2 C2 | %7
 ^C2 z2 z2 | F>F G2 G2 | D2[K:bass] B,2 B,2 | B,2 C2 C2 | C2 C4 | F>F =F2 F2 | =F2 E2 E2 | %14
 G2 F2 F2 | z2 D4- | D4 z2 |] %17
V:3
 G,>G, G,2 D,2 | D,2 D,4 | F,>F, G,2 B,2 | D2 C4 | F,>F, G,2 B,2 | _B,2 A,4 | A,>A, B,2 A,2 | %7
 G,2 F,4 | C>C B,2 B,2 | G,2 D,2 D,2 | G,2 F,2 A,2 | F,2 F,4 | C>C B,2 B,2 | D2 C2 C2 | %14
 ^D2 =D2 C2 | C2 B,4- | B,4 z2 |] %17
V:4
 G,,>G,, G,,2 G,,2 | G,,2 A,,4 | D,>D, z2 G,2 | G,2 A,4 | D,>D, z2 G,,2 | G,,2 A,,4 | %6
 A,,>A,, A,,2 A,,2 | A,,2 D,4 | D,>D, G,2 G,2 | z2 G,,2 G,,2 | G,,2 A,,2 A,,2 | D,2 D,4 | %12
 D,>D, G,2 G,2 | G,2 z2 z2 | A,2 D,2 D,2 | D,2 G,,4- | G,,4 z2 |] %17

